X: 4175
T: GALLAGHER'S BEST
%R: reel
B: James Kerr "Merry Melodies" v.4 p.20 #175
Z: 2016 John Chambers <jc:trillian.mit.edu>
M: C|
L: 1/8
K: Em
(dc) |:\
BE (3EEE (GE)BE | BE (3EEE B2AF |\
D2 (3(FED) (AD) (3(FED) | FAd^c BAFA ::\
Bdef efed |
Bdef gfed |\
[1 B^cde dcdB | AFdF EFGA :|\
[2 faef defd | BdAF E2 |]

%%sep 1 1 500
%%sep 1 1 500

